X:1
T:Over Jordan
T:Over Jordan
T:Frank Monford Graham
T:Frank Monford Graham, 1904
T:Public Domain Courtesy of the Cyber Hymnal™
T:Public Domain Courtesy of the Cyber Hymnal™
C:Frank Monford Graham
Z:Public Domain
Z:Courtesy of the Cyber Hymnal™
%%score ( 1 2 ) ( 3 4 )
L:1/8
Q:1/4=100
M:4/4
K:Eb
V:1 treble 
V:2 treble 
V:3 bass 
V:4 bass 
V:1
 (!fermata![EB]>[EA]) [EG]>[EA] [EG]>[DF] E2 | [B,E]>[B,E] [EA]>[EG] [EA]>[Ac] [GB]2 | %2
w: 1.~O * come and go with me,|If from sin you would be free;|
w: 2.~Many * will not en- ter in,|For they want to cling to sin,|
w: 3.~Our * lead- er is the Lord,|And we have His pre- cious Word;|
w: 4.~Now * won’t you come and go,|While He’s plead- ing with you so,|
w: 5.~But * if you still re- fuse,|And keep try- ing to ex- cuse,|
 [EG][FA][GB][GB] [Ge][Ge] [EG]2 | [DF]E [EG]4 [DF]2 | !fermata![EB]>[EA] [EG]>[EA] [EG]>[DF] E2 | %5
w: You will find it good for thee,|O- ver Jor- dan.|’Tis a land of corn and wine,|
w: And their jour- ney won’t be- gin,|O- ver Jor- dan.|And they see the gi- ants there,|
w: We will use it for our sword,|O- ver Jor- dan.|So you need not ev- er fear,|
w: Where the milk and hon- ey flow,|O- ver Jor- dan.|If you’ll get the “se- cond grace,”|
w: And His prom- ise will a- buse,|O- ver Jor- dan,|You will wan- der wear- y years,|
 [B,E]>[B,E] [EA]>[EG] [EA]>[Ac] [GB]2 | [EG][FA][GB][GB] [Ge][Ge] ([EG][EG]) | %7
w: And there’s fruit of ev- ery kind;|You will find it is sub- lime, *|
w: For their vi- sion is not clear,|And they will not go for fear, *|
w: For He’s prom- ised to be near,|And you’ll find Him ve- ry dear, *|
w: You’ll be talk- ing face to face,|While you’re run- ning in the race, *|
w: And be shed- ding bit- ter tears,|While you’re bound to slav- ish fears,~This *|
 E[EG] [DF]4 [B,E]2 ||"^Refrain" [EG][FA] ([GB]3 [EG]) [GB]2 | [Ge][Gd] (c3 A) [Ac]2 | %10
w: O- ver Jor- dan.|||
w: O- ver Jor- dan.|||
w: O- ver Jor- dan.|O- ver Jor- * dan,|o- ver Jor- * dan,|
w: O- ver Jor- dan.|||
w: side of Jor- dan.|||
 !fermata![Ae][Ac][GB][Ac] [GB][FA] [EG]2 | [EG]>[DF] E>[B,D] [B,E]>[Ec] [EB]2 | %12
w: ||
w: ||
w: O it is a plea- sant place,|For I have the “se- cond grace.”|
w: ||
w: ||
 [EG][FA] [GB]3 [EG] [GB]2 | [Ge][Gd] c3 A [Ac]2 | !fermata![Ae][Ac][GB][Ac] [GB][FA] [EG]2 | %15
w: |||
w: |||
w: |||
w: |||
w: |||
 E>[EG] [DF]4 [B,E]2 |] %16
w: |
w: |
w: |
w: |
w: |
V:2
 x6 E2 | x8 | x8 | x E x6 | x6 E2 | x8 | x8 | E x7 || x8 | x2 A4 x2 | x8 | x2 E3/2 x9/2 | x8 | %13
 x2 A4 x2 | x8 | E3/2 x13/2 |] %16
V:3
 ([E,G,]>[E,A,]) [E,B,]>[E,C] [E,B,]>[E,A,] [E,G,]2 | [E,G,]>[E,G,] A,>A, [A,C]>[A,E] [E,E]2 | %2
w: ~ * ~ ~ ~ ~ ~|~ ~ ~ ~ ~ ~ ~|
 [E,B,][E,B,][E,B,][E,B,] [E,B,][E,B,] [E,B,]2 | [E,B,][E,G,] [B,,B,]4 [B,,B,]2 | %4
w: ~ ~ ~ ~ ~ ~ ~|~ ~ ~ ~|
 !fermata![E,G,]>[E,A,] [E,B,]>[E,C] [E,B,]>[E,A,] [E,G,]2 | %5
w: ~ ~ ~ ~ ~ ~ ~|
 [E,G,]>[E,G,] A,>A, [A,C]>[A,E] [E,E]2 | [E,B,][E,B,][E,B,][E,B,] [E,B,][E,B,] ([E,B,][E,B,]) | %7
w: ~ ~ ~ ~ ~ ~ ~|~ ~ ~ ~ ~ ~ ~ *|
 [E,B,][E,B,] [D,A,]4 [E,G,]2 || [E,B,][E,B,] ([E,E][E,E][E,E][E,B,]) [E,E]2 | %9
w: ~ ~ ~ ~|~ ~ ~ * * * ~|
 [E,E][E,E] ([A,E][A,E][A,E][A,C]) [A,E]2 | !fermata![A,C][A,E][E,E][E,E] [E,E][E,E] [E,B,]2 | %11
w: ~ ~ ~ * * * ~|~ ~ ~ ~ ~ ~ ~|
 [B,,B,]>[B,,A,] [B,,G,]>[B,,F,] [B,,G,]>[B,,A,] [E,G,]2 | %12
w: ~ ~ ~ ~ ~ ~ ~|
 [E,B,][E,B,][E,E][E,E] [E,E][E,B,] [E,E]2 | [E,E][E,E][A,E][A,E] [A,E][A,C] [A,E]2 | %14
w: O- ver Jor- dan’s roll- ing sand|In- to hap- py Beu- lah land,|
 !fermata![A,C][A,E][E,E][E,E] [E,E][E,E] [E,B,]2 | [E,G,]>[E,B,] [B,,A,]4 [E,G,]2 |] %16
w: ’Tis a plea- sant place to live,|O- ver Jor- dan.|
V:4
 x8 | x2 A,>A, x4 | x8 | x8 | x8 | x2 A,>A, x4 | x8 | x8 || x8 | x8 | x8 | x8 | x8 | x8 | x8 | %15
 x8 |] %16

